X: 14425
T: Galway Rambler, The
R: reel
M: 4/4
K: Gmajor
G2 dG eGdG|GedB A~E3|DEGA Bdeg|1 gedB A~E3:|2 gedB A4||
|:g2fg e~B3|Bgga bgef|g2 ag eaae|1 gedB A~E3:|2 gedB AGED||
g2bg agbg|g2bg ageg|g2bg abeg|gedB AGED|
g2bg agbg|g2bg agef|gbfg eaae|gedB ABBA||

